X:6060
T:Siobhan O'Donnel's
O:england
M:6/8
L:1/8
C:Trad
R:Jig
K:Am
a2A AGE|GAB A3|eag edc|eAB AGE|cde dcA|G3 G(3Bcd|eAa ged|cAG A3:|
a2a ged|edg edc|A3 BAc|dec deg|aeg dec|A3 GEG|cde ged|cAG A3 :|


